storage/app/icons/phosphoricons/fill/divide-fill.svg

<svg xmlns="http://www.w3.org/2000/svg" fill="currentColor" viewBox="0 0 256 256"><path d="M208 32H48a16 16 0 0 0-16 16v160a16 16 0 0 0 16 16h160a16 16 0 0 0 16-16V48a16 16 0 0 0-16-16m-80 32a16 16 0 1 1-16 16 16 16 0 0 1 16-16m0 128a16 16 0 1 1 16-16 16 16 0 0 1-16 16m56-56H72a8 8 0 0 1 0-16h112a8 8 0 0 1 0 16"/></svg>

<svg xmlns="http://www.w3.org/2000/svg" viewBox="0 0 256 256" fill="currentColor"><path d="M208,32H48A16,16,0,0,0,32,48V208a16,16,0,0,0,16,16H208a16,16,0,0,0,16-16V48A16,16,0,0,0,208,32ZM128,64a16,16,0,1,1-16,16A16,16,0,0,1,128,64Zm0,128a16,16,0,1,1,16-16A16,16,0,0,1,128,192Zm56-56H72a8,8,0,0,1,0-16H184a8,8,0,0,1,0,16Z"/></svg>
